X:46
T:score138
L:1/8
Q:1/4=96
M:4/4
I:linebreak $
K:D
 A2 | (d3 f edcd | e3 c A2) A2 | (e3 g fede) |$ (e2 f2) z2 (df) | (a4 gfed) | (cB) B4 (ge) |$ %7
 (afdd) d2 (e/d/e/f/ | d2) z2 z4 |] %9
